public/img/Mypage/up.svg

<svg width="70" height="70" viewBox="0 0 70 70" fill="none" xmlns="http://www.w3.org/2000/svg">
<rect x="0.970703" y="1.31592" width="68.0535" height="68.0535" rx="34.0268" fill="#222222" stroke="#878787"/>
<path d="M33.9971 46.8149C33.9971 47.3672 34.4448 47.8149 34.9971 47.8149C35.5494 47.8149 35.9971 47.3672 35.9971 46.8149L33.9971 46.8149ZM35.7042 23.1634C35.3137 22.7729 34.6805 22.7729 34.29 23.1634L27.926 29.5273C27.5355 29.9179 27.5355 30.551 27.926 30.9416C28.3165 31.3321 28.9497 31.3321 29.3402 30.9416L34.9971 25.2847L40.6539 30.9416C41.0444 31.3321 41.6776 31.3321 42.0681 30.9416C42.4587 30.551 42.4587 29.9179 42.0681 29.5273L35.7042 23.1634ZM35.9971 46.8149L35.9971 23.8705L33.9971 23.8705L33.9971 46.8149L35.9971 46.8149Z" fill="#FFA973"/>
</svg>

<svg xmlns="http://www.w3.org/2000/svg" width="70" height="70" fill="none"><rect width="68.053" height="68.053" x=".971" y="1.316" fill="#222" stroke="#878787" rx="34.027"/><path fill="#FFA973" d="M33.997 46.815a1 1 0 1 0 2 0zm1.707-23.652a1 1 0 0 0-1.414 0l-6.364 6.364a1 1 0 0 0 1.414 1.415l5.657-5.657 5.657 5.657a1 1 0 0 0 1.414-1.415zm.293 23.652V23.87h-2v22.944z"/></svg>
